src/assets/images/care.svg

<svg width="49" height="48" viewBox="0 0 49 48" fill="none" xmlns="http://www.w3.org/2000/svg">
<path d="M17.0654 25.7979C16.695 25.7979 16.3948 26.0981 16.3948 26.4685V28.3632C16.3948 28.7336 16.695 29.0338 17.0654 29.0338C17.4359 29.0338 17.7361 28.7336 17.7361 28.3632V26.4685C17.736 26.0981 17.4358 25.7979 17.0654 25.7979Z" fill="url(#paint0_linear)"/>
<path d="M48.9562 27.784C48.9562 25.775 47.3104 24.1406 45.2874 24.1406C43.2645 24.1406 41.6186 25.775 41.6186 27.784C41.6186 28.6131 41.899 29.378 42.3699 29.9912C41.4322 30.4372 40.3718 30.8336 39.2176 31.1818V19.9168C39.2176 19.5464 38.9174 19.2462 38.547 19.2462C38.1765 19.2462 37.8763 19.5464 37.8763 19.9168V31.5552C37.1384 31.7433 36.3697 31.9136 35.5757 32.0659V4.74024C35.5757 4.11777 35.0691 3.61138 34.4461 3.61138H14.5073C13.8844 3.61138 13.3777 4.11777 13.3777 4.74024V32.0659C12.5837 31.9135 11.815 31.7432 11.0771 31.5552V1.34132H37.8762V16.6261C37.8762 16.9965 38.1764 17.2967 38.5469 17.2967C38.9173 17.2967 39.2175 16.9965 39.2175 16.6261V1.18002C39.2175 0.529339 38.6865 0 38.0337 0H10.9225C10.2682 0 9.73587 0.529339 9.73587 1.18002V31.1818C8.58167 30.8336 7.52118 30.4372 6.58365 29.9912C7.05447 29.378 7.33492 28.6131 7.33492 27.784C7.33492 25.775 5.68905 24.1406 3.66607 24.1406C1.64462 24.1406 0 25.775 0 27.784C0 28.8536 0.465657 29.8172 1.20583 30.4847V46.89C1.20583 47.502 1.70524 48 2.31911 48H5.01581C5.62967 48 6.12908 47.502 6.12908 46.89V46.3667H42.8243V46.89C42.8243 47.502 43.3237 48 43.9376 48H46.637C47.2508 48 47.7502 47.502 47.7502 46.89V30.4839C48.4906 29.8164 48.9562 28.8533 48.9562 27.784ZM45.2874 25.4819C46.5708 25.4819 47.6149 26.5146 47.6149 27.784C47.6149 29.0548 46.5708 30.0888 45.2874 30.0888C44.004 30.0888 42.9599 29.0548 42.9599 27.784C42.9598 26.5146 44.004 25.4819 45.2874 25.4819ZM42.8243 31.2571V41.4408H39.2175V32.5738C40.5563 32.189 41.7675 31.7481 42.8243 31.2571ZM37.8763 32.9304V41.4407H35.5757V33.4261C36.3719 33.2771 37.1395 33.1113 37.8763 32.9304ZM14.719 4.9528H34.2345V32.3022C28.1323 33.2895 20.8212 33.2895 14.719 32.3022V4.9528ZM13.3778 33.4262V41.4408H11.0772V32.9305C11.814 33.1113 12.5816 33.2771 13.3778 33.4262ZM9.73587 41.4407H6.12908V31.2571C7.18594 31.7482 8.39713 32.189 9.73587 32.5738V41.4407ZM3.66607 25.4819C4.94955 25.4819 5.99359 26.5146 5.99359 27.784C5.99359 29.0548 4.94945 30.0888 3.66607 30.0888C2.38413 30.0888 1.34123 29.0548 1.34123 27.784C1.34123 26.5146 2.38413 25.4819 3.66607 25.4819ZM4.78786 46.6587H2.54706V31.2557C2.90008 31.3686 3.27586 31.4301 3.66607 31.4301C4.05724 31.4301 4.43407 31.3683 4.78786 31.2551V42.1114V45.696V46.6587ZM6.12908 45.0253V42.7821H22.8255C23.196 42.7821 23.4962 42.4818 23.4962 42.1114C23.4962 41.741 23.196 41.4407 22.8255 41.4407H14.719V33.6573C17.7034 34.1305 21.0192 34.3854 24.4767 34.3854C27.9343 34.3854 31.2501 34.1305 34.2345 33.6573V41.4407H26.1442C25.7738 41.4407 25.4736 41.741 25.4736 42.1114C25.4736 42.4818 25.7738 42.7821 26.1442 42.7821H42.8244V45.0253H6.12908ZM46.4091 46.6587H44.1656V45.696V42.1114V31.2551C44.5194 31.3683 44.8963 31.4301 45.2874 31.4301C45.6786 31.4301 46.0553 31.3683 46.4091 31.2551V46.6587Z" fill="url(#paint1_linear)"/>
<path d="M21.1639 16.3383C21.1589 16.7737 21.3527 17.0055 21.5161 17.1232C21.6247 17.2013 21.785 17.2763 22.0004 17.2763C22.1094 17.2763 22.2324 17.2571 22.37 17.2093L24.4361 16.4999L26.5026 17.2094C26.9176 17.3517 27.1997 17.2392 27.3631 17.1197C27.526 17.0003 27.7183 16.7666 27.7083 16.3331L27.6667 14.1679L28.9824 12.4416C29.2503 12.0919 29.2315 11.7882 29.1685 11.5951C29.1056 11.4019 28.9422 11.1457 28.5242 11.0223L26.4322 10.3912L25.1831 8.61333C25.183 8.61314 25.1829 8.61305 25.1827 8.61285C24.9312 8.25563 24.6386 8.18066 24.4375 8.18066C24.2363 8.18066 23.9437 8.25563 23.6918 8.61333L22.4427 10.3912L20.3565 11.0206C19.9333 11.1441 19.7691 11.4002 19.7059 11.5933C19.6427 11.7866 19.6237 12.0907 19.8911 12.4397L21.2056 14.1675L21.1639 16.3383ZM23.052 11.6085C23.1957 11.565 23.3206 11.4748 23.407 11.3519L24.4375 9.88533L25.4678 11.3519C25.5542 11.4748 25.6791 11.565 25.8229 11.6085L27.5367 12.1255L26.4582 13.5406C26.3665 13.6609 26.3182 13.8087 26.3211 13.9601L26.3554 15.7407L24.6539 15.1564C24.5834 15.1322 24.5097 15.12 24.4361 15.12C24.3625 15.12 24.2889 15.1321 24.2183 15.1564L22.5169 15.7406L22.5511 13.9601C22.554 13.809 22.5058 13.6614 22.4144 13.5411L21.3377 12.1256L23.052 11.6085Z" fill="url(#paint2_linear)"/>
<path d="M28.9547 20.3128C28.9547 19.9423 28.6545 19.6421 28.284 19.6421H21.1553C20.7849 19.6421 20.4846 19.9423 20.4846 20.3128C20.4846 20.6832 20.7849 20.9834 21.1553 20.9834H28.284C28.6545 20.9834 28.9547 20.6832 28.9547 20.3128Z" fill="url(#paint3_linear)"/>
<defs>
<linearGradient id="paint0_linear" x1="16.4331" y1="27.4158" x2="17.7361" y2="27.4158" gradientUnits="userSpaceOnUse">
<stop stop-color="#015AAD"/>
<stop offset="1" stop-color="#00B74F"/>
</linearGradient>
<linearGradient id="paint1_linear" x1="1.39875" y1="24" x2="48.9562" y2="24" gradientUnits="userSpaceOnUse">
<stop stop-color="#015AAD"/>
<stop offset="1" stop-color="#00B74F"/>
</linearGradient>
<linearGradient id="paint2_linear" x1="19.9388" y1="12.7285" x2="29.2081" y2="12.7285" gradientUnits="userSpaceOnUse">
<stop stop-color="#015AAD"/>
<stop offset="1" stop-color="#00B74F"/>
</linearGradient>
<linearGradient id="paint3_linear" x1="20.7266" y1="20.3128" x2="28.9547" y2="20.3128" gradientUnits="userSpaceOnUse">
<stop stop-color="#015AAD"/>
<stop offset="1" stop-color="#00B74F"/>
</linearGradient>
</defs>
</svg>

<svg width="49" height="48" fill="none" xmlns="http://www.w3.org/2000/svg"><path d="M17.065 25.798c-.37 0-.67.3-.67.67v1.895a.67.67 0 101.341 0v-1.895c0-.37-.3-.67-.67-.67z" fill="url(#paint0_linear)"/><path d="M48.956 27.784c0-2.009-1.646-3.643-3.669-3.643s-3.668 1.634-3.668 3.643c0 .83.28 1.594.75 2.207a22.53 22.53 0 01-3.151 1.19V19.918a.67.67 0 10-1.342 0v11.638c-.738.188-1.506.359-2.3.51V4.74a1.13 1.13 0 00-1.13-1.129H14.507a1.13 1.13 0 00-1.13 1.13v27.325a39.461 39.461 0 01-2.3-.51V1.34h26.8v15.285a.67.67 0 101.34 0V1.18c0-.65-.53-1.18-1.183-1.18H10.923c-.655 0-1.187.53-1.187 1.18v30.002a22.521 22.521 0 01-3.152-1.19 3.62 3.62 0 00.75-2.208c0-2.009-1.645-3.643-3.668-3.643C1.645 24.14 0 25.775 0 27.784c0 1.07.466 2.033 1.206 2.7V46.89c0 .612.5 1.11 1.113 1.11h2.697c.614 0 1.113-.498 1.113-1.11v-.523h36.695v.523c0 .612.5 1.11 1.114 1.11h2.699c.614 0 1.113-.498 1.113-1.11V30.484a3.627 3.627 0 001.206-2.7zm-3.669-2.302c1.284 0 2.328 1.033 2.328 2.302 0 1.27-1.044 2.305-2.328 2.305-1.283 0-2.327-1.034-2.327-2.305 0-1.27 1.044-2.302 2.327-2.302zm-2.463 5.775v10.184h-3.606v-8.867c1.338-.385 2.55-.826 3.606-1.317zm-4.948 1.673v8.51h-2.3v-8.014a42.247 42.247 0 002.3-.496zM14.72 4.953h19.515v27.35c-6.102.986-13.413.986-19.515 0V4.952zm-1.341 28.473v8.015h-2.3v-8.51c.736.18 1.504.346 2.3.495zm-3.642 8.015H6.129V31.257c1.057.491 2.268.932 3.607 1.317v8.867zm-6.07-15.96c1.284 0 2.328 1.034 2.328 2.303 0 1.27-1.045 2.305-2.328 2.305a2.318 2.318 0 01-2.325-2.305c0-1.27 1.043-2.302 2.325-2.302zM4.788 46.66h-2.24V31.256a3.667 3.667 0 002.24 0v15.403zm1.341-1.634v-2.243h16.697a.67.67 0 100-1.341h-8.107v-7.784c2.984.474 6.3.728 9.758.728 3.457 0 6.773-.255 9.757-.728v7.784h-8.09a.67.67 0 000 1.341h16.68v2.243H6.13zm40.28 1.634h-2.243V31.255a3.675 3.675 0 002.243 0V46.66z" fill="url(#paint1_linear)"/><path d="M21.164 16.338c-.005.436.189.668.352.785a.816.816 0 00.484.153c.11 0 .232-.019.37-.067l2.066-.71 2.067.71c.415.143.697.03.86-.09.163-.119.355-.352.345-.786l-.041-2.165 1.315-1.726c.268-.35.25-.654.187-.847-.063-.193-.227-.45-.645-.573l-2.092-.63-1.249-1.779c-.252-.357-.544-.432-.745-.432-.202 0-.494.075-.746.432l-1.25 1.778-2.085.63c-.424.123-.588.38-.651.572-.063.194-.082.498.185.847l1.315 1.728-.042 2.17zm1.888-4.73a.672.672 0 00.355-.256l1.03-1.467 1.03 1.467a.671.671 0 00.356.256l1.714.518-1.079 1.415a.67.67 0 00-.137.42l.034 1.78-1.701-.585a.671.671 0 00-.436 0l-1.701.585.034-1.78a.671.671 0 00-.137-.42l-1.076-1.415 1.714-.518z" fill="url(#paint2_linear)"/><path d="M28.955 20.313c0-.37-.3-.67-.671-.67h-7.129a.67.67 0 100 1.34h7.129c.37 0 .67-.3.67-.67z" fill="url(#paint3_linear)"/><defs><linearGradient id="paint0_linear" x1="16.433" y1="27.416" x2="17.736" y2="27.416" gradientUnits="userSpaceOnUse"><stop stop-color="#015AAD"/><stop offset="1" stop-color="#00B74F"/></linearGradient><linearGradient id="paint1_linear" x1="1.399" y1="24" x2="48.956" y2="24" gradientUnits="userSpaceOnUse"><stop stop-color="#015AAD"/><stop offset="1" stop-color="#00B74F"/></linearGradient><linearGradient id="paint2_linear" x1="19.939" y1="12.729" x2="29.208" y2="12.729" gradientUnits="userSpaceOnUse"><stop stop-color="#015AAD"/><stop offset="1" stop-color="#00B74F"/></linearGradient><linearGradient id="paint3_linear" x1="20.727" y1="20.313" x2="28.955" y2="20.313" gradientUnits="userSpaceOnUse"><stop stop-color="#015AAD"/><stop offset="1" stop-color="#00B74F"/></linearGradient></defs></svg>
